usr/share/icons/biglinux-icons-material-dark/22/actions/xml-node-delete.svg

<svg xmlns="http://www.w3.org/2000/svg" viewBox="0 0 22 22">
  <defs id="defs3051">
    <style type="text/css" id="current-color-scheme">
      .ColorScheme-Text {
        color:#dedede;
      }
      </style>
  </defs>
 <path 
     style="fill:currentColor;fill-opacity:1;stroke:none" 
     d="M 12.5 3 L 8.5 18.753906 L 9.5 19 L 13.5 3.2460938 L 12.5 3 z M 7.2539062 6 L 3.2792969 10.644531 L 3 11 L 3.2792969 11.355469 L 7.2539062 16 L 8 15.291016 L 4.3359375 11 L 8 6.7089844 L 7.2539062 6 z M 14.746094 6 L 14 6.7089844 L 17.664062 11 L 15.957031 13 L 17.3125 13 L 18.720703 11.355469 L 19 11 L 18.720703 10.644531 L 14.746094 6 z "
     class="ColorScheme-Text"
     />
 <path 
     style="fill:#da4453;fill-opacity:1;stroke:none"      
     d="M 14.833984 14 L 14 14.833984 L 15.666016 16.5 L 14 18.166016 L 14.833984 19 L 16.5 17.333984 L 18.166016 19 L 19 18.166016 L 17.333984 16.5 L 19 14.833984 L 18.166016 14 L 16.5 15.666016 L 14.833984 14 z "
     />
</svg>

<svg xmlns="http://www.w3.org/2000/svg" viewBox="0 0 22 22">
<defs id="defs3051">
<style id="current-color-scheme" type="text/css">
.ColorScheme-Text{color:#dedede}
</style>
</defs>
<path d="m12.5 3-4 15.754 1 .246 4-15.754zM7.254 6l-3.975 4.645L3 11l.28.355L7.253 16 8 15.291 4.336 11 8 6.709zm7.492 0L14 6.709 17.664 11l-1.707 2h1.355l1.409-1.645L19 11l-.28-.355z" class="ColorScheme-Text" style="fill:currentColor;fill-opacity:1;stroke:none"/>
<path d="m14.834 14-.834.834 1.666 1.666L14 18.166l.834.834 1.666-1.666L18.166 19l.834-.834-1.666-1.666L19 14.834 18.166 14 16.5 15.666z" style="fill:#da4453;fill-opacity:1;stroke:none"/>
</svg>
